symbolic/16x16/actions/view-multiple-objects.svg

<svg xmlns="http://www.w3.org/2000/svg" width="16" height="16"><defs><style id="current-color-scheme" type="text/css"></style></defs><path style="fill:currentColor;color:#323a41" d="M1 1v6h8V1H1zm10 0v6h4V1h-4zM1 9v6h14V9H1z"/></svg>

<svg xmlns="http://www.w3.org/2000/svg" width="16" height="16" viewBox="0 0 16 16">
 <defs>
  <style id="current-color-scheme" type="text/css">
   .ColorScheme-Text { color:#323a41; } .ColorScheme-Highlight { color:#4285f4; } .ColorScheme-NeutralText { color:#ff9800; } .ColorScheme-PositiveText { color:#4caf50; } .ColorScheme-NegativeText { color:#f44336; }
  </style>
 </defs>
 <path style="fill:currentColor" class="ColorScheme-Text" d="M 1 1 L 1 7 L 9 7 L 9 1 L 1 1 z M 11 1 L 11 7 L 15 7 L 15 1 L 11 1 z M 1 9 L 1 15 L 15 15 L 15 9 L 1 9 z"/>
</svg>
